X:3694
T:Da Scalloway Lasses
M:4/4
L:1/8
Q:1/4=220
C:Trad Shetland
S:From the playing of Dave Moss
R:reel
O:Shetland
B:Fiddler's Fake Book
K:A Aeolian
"Am"eaag egeB|"C"c2 ec gcec|"Am"eaag egeB|[1cA
"Em"BG "Am" A2 A2:|[2 cA
"Em"BG  "Am"A2 Ac||!
"Em"BE (3EEE  "C"c2 ce|"G"d^cde gfed|"Am"eaag egeB|[1 cA
"Em"BG "Am" A2Ac:|[2cA
"Em"BG "Am"A4||!


